packages/ffe-icons/icons/filled/md/step_out.svg

<svg xmlns="http://www.w3.org/2000/svg" height="24" viewBox="0 -960 960 960" width="24"><path d="M480.045-90q-45.814 0-77.929-32.071-32.115-32.07-32.115-77.884t32.07-77.929q32.07-32.115 77.884-32.115t77.929 32.07q32.115 32.07 32.115 77.884t-32.07 77.929q-32.07 32.115-77.884 32.115Zm-30.044-650.847-93.309 91.924q-8.308 8.308-20.384 8.423-12.077.115-21.067-8.807-8.24-8.18-8.24-20.82 0-12.641 8.307-20.949L454.693-830.46q10.846-10.846 25.307-10.846 14.461 0 25.307 10.846l139.385 139.384q8.923 8.923 8.807 21.077-.115 12.153-9.423 21.076-8.922 8.308-21.076 8.423-12.154.115-21.076-8.807l-91.925-91.925v311.233q0 12.749-8.628 21.374Q492.742-400 479.987-400q-12.756 0-21.371-8.625-8.615-8.625-8.615-21.374v-310.848Z"/></svg>

<svg xmlns="http://www.w3.org/2000/svg" height="24" viewBox="0 -960 960 960" width="24"><path d="M480.05-90q-45.82 0-77.93-32.07Q370-154.14 370-199.95q0-45.82 32.07-77.93Q434.14-310 479.95-310q45.82 0 77.93 32.07Q590-245.86 590-200.05q0 45.82-32.07 77.93Q525.86-90 480.05-90ZM450-740.85l-93.31 91.93q-8.31 8.3-20.38 8.42-12.08.12-21.07-8.81-8.24-8.18-8.24-20.82t8.31-20.95l139.38-139.38q10.85-10.85 25.31-10.85 14.46 0 25.31 10.85l139.38 139.38q8.92 8.93 8.81 21.08-.12 12.15-9.42 21.08-8.93 8.3-21.08 8.42-12.15.12-21.08-8.81L510-741.23V-430q0 12.75-8.63 21.38-8.63 8.62-21.38 8.62-12.76 0-21.37-8.62Q450-417.25 450-430v-310.85Z"/></svg>
